X:1
T:Title
%%score ( 1 2 ) 3
L:1/8
Q:1/4=90
M:6/8
K:Bb
V:1 treble nm="Grand Piano, Soprano"
V:2 treble 
V:3 bass nm="Choir Pad, Bass"
V:1
 F[DB][DA] [DG][DF]D | EFG A B2 | [DB][Fd][Ec] [DB][FB][FA] | [FB] [Fd]2- [Fd] [Fc]2 | %4
w: By~Herbert~J.~Lacey * * * * *||||
 F[DB][DB] [DB][^FA][FA] | [^FA][EG][EG] [EG] [D=F]2 | [_A,D][=A,C][CF] [FA][Fc][FA] | %7
w: |||
 z G2- G/ z/ z z | [Dd][Dd]<[Dd] [Dd][Dd]<[Dd] | [Dd][Dd][DB] [_DG] [=DF]2 | %10
w: |||
 [DB][Fd][Ec] [DB][FB][FA] | [FB] [Fd]2- [Fd] [Fc]2 | [EF][DB][Dd] [DB] [EG]2 | %13
w: |||
 [FG][Ec][Ge] [Gc] [FA]2 | F[FB][Fc] [Fd][Ge]G | [Gd] [Ec]2- [Ec] [DB]2- | [DB]6 |] %17
w: ||||
V:2
 x6 | x6 | x6 | x6 | x6 | x6 | x6 | F F2 =E F2 | x6 | x6 | x6 | x6 | x6 | x6 | x6 | x6 | x6 |] %17
V:3
 F,[B,,F,][B,,F,] [B,,F,][B,,B,]D, | E,F,G, A, B,2 | [B,,B,][B,,B,][B,,B,] [B,,B,][F,D][F,C] | %3
 [F,D] [F,B,]2- [F,B,] [F,A,]2 | F,[G,B,][G,B,] [G,B,][D,D][D,D] | %5
 [D,C][E,B,][E,B,] [E,B,] [B,,B,]2 | [=B,,F,][C,F,][C,A,] [C,C][C,A,][C,C] | %7
 [C,A,] [C,B,]2- [C,B,] [F,A,]2 | [B,,F,][B,,F,]<[B,,F,] [B,,^F,][B,,G,]<[B,,G,] | %9
 [B,,A,][B,,B,][B,,F,] [B,,=E,] [B,,F,]2 | [B,,B,][B,,B,][B,,B,] [B,,B,][F,D][F,C] | %11
 [F,D] [F,B,]2- [F,B,] [F,A,]2 | [F,A,][B,,F,][B,,F,] [B,,B,] [E,B,]2 | %13
 [D,=B,][C,C][C,C] [E,C] [F,C]2 | [E,A,][D,B,][C,A,] [B,,B,][E,B,][E,B,] | %15
 [E,B,] [F,A,]2- [F,A,] [B,,B,]2- | [B,,B,]6 |] %17

